X:0974
T:A Do.
M:C
L:1/8
Q:1/2=96
I: :: ::
Z:Jack Campin * www.campin.me.uk * 2009
K:A Mixolydian
e|A>A e2 cA`Ac|dBcA BGGB|A<Ae>A c>Ae>A|d>G B/A/B e2A:|
c|A<A a2 c<cac|g2eg BcdB|a<eea  c<ce>c|g2  d>B   e2A:|

